public/svg/nodejs.svg

<svg viewBox="-16.5 0 289 289" version="1.1" xmlns="http://www.w3.org/2000/svg" xmlns:xlink="http://www.w3.org/1999/xlink" preserveAspectRatio="xMidYMid" fill="#000000" data-darkreader-inline-fill="" style="--darkreader-inline-fill: #000000;"><g id="SVGRepo_bgCarrier" stroke-width="0"></g><g id="SVGRepo_tracerCarrier" stroke-linecap="round" stroke-linejoin="round"></g><g id="SVGRepo_iconCarrier"> <g> <path d="M127.999999,288.463771 C124.024844,288.463771 120.314699,287.403728 116.869564,285.548656 L81.6231884,264.612838 C76.32298,261.697724 78.9730854,260.637682 80.5631458,260.107661 C87.7184259,257.72257 89.0434775,257.192547 96.4637688,252.952381 C97.2587979,252.422361 98.3188405,252.687372 99.1138718,253.217392 L126.144927,269.383024 C127.20497,269.913045 128.530021,269.913045 129.325053,269.383024 L235.064182,208.165634 C236.124225,207.635611 236.654245,206.575571 236.654245,205.250519 L236.654245,83.0807467 C236.654245,81.7556929 236.124225,80.6956526 235.064182,80.1656324 L129.325053,19.2132506 C128.26501,18.6832305 126.939959,18.6832305 126.144927,19.2132506 L20.4057954,80.1656324 C19.3457551,80.6956526 18.8157349,82.0207041 18.8157349,83.0807467 L18.8157349,205.250519 C18.8157349,206.31056 19.3457551,207.635611 20.4057954,208.165634 L49.2919247,224.861286 C64.9275364,232.811595 74.7329196,223.536234 74.7329196,214.260871 L74.7329196,93.681159 C74.7329196,92.0910985 76.0579711,90.5010358 77.9130428,90.5010358 L91.4285716,90.5010358 C93.0186343,90.5010358 94.6086948,91.8260873 94.6086948,93.681159 L94.6086948,214.260871 C94.6086948,235.196689 83.2132512,247.387164 63.3374737,247.387164 C57.2422362,247.387164 52.4720502,247.387164 38.9565214,240.761906 L11.1304347,224.861286 C4.24016581,220.886129 5.68434189e-14,213.46584 5.68434189e-14,205.515528 L5.68434189e-14,83.3457557 C5.68434189e-14,75.3954465 4.24016581,67.9751552 11.1304347,64.0000006 L116.869564,2.78260752 C123.494824,-0.927535841 132.505176,-0.927535841 139.130436,2.78260752 L244.869565,64.0000006 C251.759834,67.9751552 256,75.3954465 256,83.3457557 L256,205.515528 C256,213.46584 251.759834,220.886129 244.869565,224.861286 L139.130436,286.078676 C135.685299,287.668739 131.710145,288.463771 127.999999,288.463771 L127.999999,288.463771 Z M160.596274,204.455488 C114.219461,204.455488 104.679089,183.254659 104.679089,165.233955 C104.679089,163.643893 106.004141,162.053832 107.859212,162.053832 L121.639752,162.053832 C123.229813,162.053832 124.554864,163.113872 124.554864,164.703935 C126.674947,178.749484 132.770187,185.639753 160.861283,185.639753 C183.122154,185.639753 192.662526,180.604556 192.662526,168.67909 C192.662526,161.788821 190.012423,156.753624 155.296065,153.308489 C126.409938,150.393375 108.389235,144.033126 108.389235,120.977226 C108.389235,99.5113875 126.409938,86.7908901 156.621119,86.7908901 C190.542443,86.7908901 207.238095,98.4513472 209.358178,123.89234 C209.358178,124.687371 209.093167,125.482403 208.563147,126.277434 C208.033127,126.807454 207.238095,127.337474 206.443064,127.337474 L192.662526,127.337474 C191.337475,127.337474 190.012423,126.277434 189.747412,124.952382 C186.567289,110.376813 178.351966,105.606625 156.621119,105.606625 C132.240165,105.606625 129.325053,114.086957 129.325053,120.447205 C129.325053,128.132506 132.770187,130.5176 165.631471,134.757766 C198.227744,138.997931 213.598344,145.093169 213.598344,167.884058 C213.333333,191.20497 194.252589,204.455488 160.596274,204.455488 L160.596274,204.455488 Z" fill="#539E43" data-darkreader-inline-fill="" style="--darkreader-inline-fill: #427e36;"> </path> </g> </g></svg>

<?xml version="1.0" encoding="UTF-8"?>
<svg fill="#000000" style="--darkreader-inline-fill:#000000" data-darkreader-inline-fill="" preserveAspectRatio="xMidYMid" version="1.1" viewBox="-16.5 0 289 289" xmlns="http://www.w3.org/2000/svg">
<title>NodeJS icon</title>
<path d="m128 288.46c-3.9752 0-7.6853-1.06-11.13-2.9151l-35.246-20.936c-5.3002-2.9151-2.6501-3.9752-1.06-4.5052 7.1553-2.3851 8.4803-2.9151 15.901-7.1553 0.79503-0.53002 1.8551-0.26501 2.6501 0.26501l27.031 16.166c1.06 0.53002 2.3851 0.53002 3.1801 0l105.74-61.217c1.06-0.53002 1.5901-1.5901 1.5901-2.9151v-122.17c0-1.3251-0.53002-2.3851-1.5901-2.9151l-105.74-60.952c-1.06-0.53002-2.3851-0.53002-3.1801 0l-105.74 60.952c-1.06 0.53002-1.5901 1.8551-1.5901 2.9151v122.17c0 1.06 0.53002 2.3851 1.5901 2.9151l28.886 16.696c15.636 7.9503 25.441-1.3251 25.441-10.6v-120.58c0-1.5901 1.3251-3.1801 3.1801-3.1801h13.516c1.5901 0 3.1801 1.3251 3.1801 3.1801v120.58c0 20.936-11.395 33.126-31.271 33.126-6.0952 0-10.865 0-24.381-6.6253l-27.826-15.901c-6.8903-3.9752-11.13-11.395-11.13-19.346v-122.17c0-7.9503 4.2402-15.371 11.13-19.346l105.74-61.217c6.6253-3.7101 15.636-3.7101 22.261 0l105.74 61.217c6.8903 3.9752 11.13 11.395 11.13 19.346v122.17c0 7.9503-4.2402 15.371-11.13 19.346l-105.74 61.217c-3.4451 1.5901-7.4203 2.3851-11.13 2.3851zm32.596-84.008c-46.377 0-55.917-21.201-55.917-39.222 0-1.5901 1.3251-3.1801 3.1801-3.1801h13.781c1.5901 0 2.9151 1.06 2.9151 2.6501 2.1201 14.046 8.2153 20.936 36.306 20.936 22.261 0 31.801-5.0352 31.801-16.961 0-6.8903-2.6501-11.925-37.366-15.371-28.886-2.9151-46.907-9.2754-46.907-32.331 0-21.466 18.021-34.186 48.232-34.186 33.921 0 50.617 11.66 52.737 37.101 0 0.79503-0.26501 1.5901-0.79503 2.3851-0.53002 0.53002-1.3251 1.06-2.1201 1.06h-13.781c-1.3251 0-2.6501-1.06-2.9151-2.3851-3.1801-14.576-11.395-19.346-33.126-19.346-24.381 0-27.296 8.4803-27.296 14.841 0 7.6853 3.4451 10.07 36.306 14.311 32.596 4.2402 47.967 10.335 47.967 33.126-0.26501 23.321-19.346 36.571-53.002 36.571z" fill="#539E43" style="--darkreader-inline-fill:#427e36" data-darkreader-inline-fill=""></path>
</svg>
